X:3
T:Autumn In New York
C:Vernon Duke
L:1/8
M:C
I:linebreak $
K:F
"Gm" AGFD"Am" C4 |"Bb" z DFB"C4" d d2 c |"F6" d4"Gm" A4 |"Am" z4"Abm" z4 |$"Gm" AGFD"Am" C4 |
"Bb" z DFB"C7" d d2 c |"Am" d4"D7" A4 |"Aø" z4"Ab7" z4 |$"Gm" c c2 A"Am" G3 F ||
[K:Ab]"Bbm" A A2 F"A7" E3 D |"Ab" (3E2 =B,2 C2"Bbm" E4 |"Cm" z4"Dø" F4 |$
"Eb+" (3G2 =D2 E2"Aø" G4 ||[K:C]"Dm" z4"Db7" B4 |"C" G4"Bø" z4 |"Am" z4"Ab7" ^G4 ||$
[K:F]"Gm" AGFD"Am" C4 |"Bb" z DFB"C4" d d2 c |"F6" d4"Gm" A4 |"Am" z4"Bb" z4 |$
"Cm" dcBG"Dm" F4 ||[K:Db]"Ebm" z GBc"F+" d e2 c |"Bbm" d4"Bbm/Ab" z4 |"Gø" z4"Gb7" z4 |$
"Fm6" c A2 c"C+" e3 e |"Fm" c2"Em" z2"Ebm" B2"D7" z2 |"Db" A F2 A"D7" c3 c |
"Db" A2"Cø" z2"Bbm" A2"Abm" z2 ||$[K:F]"Gm" AGFD"Am" C4 |"Bbm" z B,_DF"C+" _A B2 G |"Fm6" F8 |
z8 |]


